X: 113104
T: CAIRNGORUM
Q: "Reel."
R:  Reel.
%R: reel
B: James Kerr "Merry Melodies" v.1 p.13 s.1 #4
Z: 2017 John Chambers <jc:trillian.mit.edu>
N: The 4-bar 1st strain doesn't have a repeat symbol; probably a typo.
M: C
L: 1/8
K: D
uB |\
vA>vD (3(FED) d>D (3(FED) | EBBA BEEd |\
A>D (3(FED) dgfe | dBAF AD D |]\
uf |\
abaf defd | ebba beef |
abaf defe | dBAF AD Df |\
abaf defd | ebba beef |\
abaf dgfe | dBAF AD D |]

%%sep 1 1 500
%%sep 1 1 500

